X:86
T:Twilight
S:American Veteran Fifer #86
C:J.L. Blatchley, Port Crane N.Y.
M:2/4
L:1/8
Q:1/8=180
K:D 
%%MIDI program 72
%%MIDI transpose 8
%%MIDI ratio 3 1
F/G/ | Ad/e/ fd/f/ | af/d/ A2 | Ac/e/ gf/e/ | f/e/d/f/ A2 |
Ad/f/ a2 | g/f/e/f/ g2 | f/e/d/f/ a/g/e/c/ | dfd :|
|: d/f/ | a/b/a/g/ f/e/d/e/ | f/d/e/f/ g2 | g/a/g/f/ e/d/c/d/ | e/f/g/e/ a2 |
a/b/a/f/ g/a/g/e/ | f/g/f/d/ g/f/e | f/e/d/A/ g/f/e/c/ | dfd :|


